X:1
T: Da Mirrie Boys O' Greenland
C:
R:Reel
Q: 232
K:D
M:4/4
L:1/8
|:AB de fd f2|ee ce Ae ce|AB de fd fa|ge cA d2 d2|
AB de fd f2|ee ce Ae ce|AB de fd fa|ge cA d2 d2|
fg fe fg af|gf ec ef ge|fg fe fg af|ge cA d2 d2|
fg fe fg af|gf ec ef ge|fg fe fg af|ge cA d2 d2:|
